svg/charges/tools/scythe.svg

<?xml version="1.0" encoding="UTF-8" standalone="no"?>
<svg
   xmlns:dc="http://purl.org/dc/elements/1.1/"
   xmlns:cc="http://creativecommons.org/ns#"
   xmlns:rdf="http://www.w3.org/1999/02/22-rdf-syntax-ns#"
   xmlns:svg="http://www.w3.org/2000/svg"
   xmlns="http://www.w3.org/2000/svg"
   id="svg1534"
   width="453.89282"
   height="698.66431"
   version="1.0">
  <metadata
     id="metadata1539">
    <rdf:RDF>
      <cc:Work
         rdf:about="">
        <dc:format>image/svg+xml</dc:format>
        <dc:type
           rdf:resource="http://purl.org/dc/dcmitype/StillImage" />
        <dc:title></dc:title>
        <dc:creator>
          <cc:Agent>
            <dc:title>http://commons.wikimedia.org/wiki/User:Rinaldum</dc:title>
          </cc:Agent>
        </dc:creator>
      </cc:Work>
    </rdf:RDF>
  </metadata>
  <defs
     id="defs1537" />
  <g
     id="g1920">
    <g
       id="body"
       style="fill:#ffff00">
      <path
         style="fill:#ffff00;fill-opacity:1;fill-rule:evenodd;stroke:#000000;stroke-width:3;stroke-linecap:butt;stroke-linejoin:miter;stroke-miterlimit:4;stroke-dasharray:none;stroke-opacity:1"
         d="M 107.9,232.2 C 106.5,176.6 195.8,93.02 255.2,56.07 325.5,12.47 364.9,21.89 364.6,21.3 350.7,-6.454 272.1,-0.3365 238.2,11.35 142.5,44.45 30.39,157.7 1.971,203.9 c -1.4113,2.2 -0.166,22 10.939,32.3 12.69,11.7 14.48,13 22.39,17.9 1.69,1 13.04,-10.7 13.93,-11 0.6,-0.1 -18.9,-19.2 0.5,-30.3 16.94,-9.7 31.26,21.5 31.33,21.4 0.61,-1.1 26.84,-0.8 26.84,-2 z"
         id="path2381" />
      <path
         style="fill:#ffff00;fill-opacity:0.75;fill-rule:evenodd;stroke:#000000;stroke-width:2;stroke-linecap:butt;stroke-linejoin:miter;stroke-miterlimit:4;stroke-dasharray:none;stroke-opacity:1"
         d="M 19.54,209.1 C 22.36,204.3 161.8,24.88 287.9,2.489"
         id="path3260" />
    </g>
    <g
       id="handle"
       style="fill:#ff0000">
      <g
         id="g1903"
         style="fill:#ff0000">
        <path
           id="path3266"
           d="m 47.73,243.6 c 0,0 226.57,234 226.87,233.8 6.7,-3.9 34.9,-38.4 53.5,-46.6 7.6,-3.3 17.9,8.5 16.2,14.2 -1.7,5.6 -50.5,53.6 -49.8,54.3 0.8,8.7 141.1,159.2 141.2,159.2 20.5,6.4 19.7,28 10.5,35.3 -7.4,5.8 -28.7,6.7 -34.9,-19.4 -0.7,-3.1 -88,-99 -132.8,-148.2 L 250.7,497.3 36.79,265 c 0,0 -4.97,-2.6 -9.45,-6.4 -4.48,-3.9 -2.99,-5.6 -8.46,-9 -5.47,-3.3 -9.821,-1.6 -13.427,-4.5 -3.606,-2.8 -0.995,-6.9 -0.995,-6.9 l 14.922,3.5 15.42,12.9 z"
           style="fill:#ff0000;fill-opacity:1;fill-rule:evenodd;stroke:#000000;stroke-width:3;stroke-linecap:butt;stroke-linejoin:miter;stroke-miterlimit:4;stroke-dasharray:none;stroke-opacity:1" />
        <g
           id="g1898"
           style="fill:#ff0000">
          <path
             style="fill:#ff0000;fill-opacity:0.75;fill-rule:evenodd;stroke:#000000;stroke-width:2;stroke-linecap:butt;stroke-linejoin:miter;stroke-miterlimit:4;stroke-dasharray:none;stroke-opacity:1"
             d="m 274.6,476.4 c -1.5,13.8 15.4,20.7 15.9,20.9"
             id="path3272" />
          <path
             style="fill:#ff0000;fill-opacity:0.75;fill-rule:evenodd;stroke:#000000;stroke-width:2;stroke-linecap:butt;stroke-linejoin:miter;stroke-miterlimit:4;stroke-dasharray:none;stroke-opacity:1"
             d="m 277,514.9 c 0.8,-0.8 17.2,-15.1 17,-15.3"
             id="path3274" />
          <path
             style="fill:#ff0000;fill-opacity:0.75;fill-rule:evenodd;stroke:#000000;stroke-width:2;stroke-linecap:butt;stroke-linejoin:miter;stroke-miterlimit:4;stroke-dasharray:none;stroke-opacity:1"
             d="m 252.2,497.3 c 7.7,-8.1 20.8,-19.8 21.9,-20.9"
             id="path3276" />
        </g>
      </g>
      <path
         style="fill:#ff0000;fill-opacity:0.75;fill-rule:evenodd;stroke:#000000;stroke-width:2;stroke-linecap:butt;stroke-linejoin:miter;stroke-miterlimit:4;stroke-dasharray:none;stroke-opacity:1"
         d="M 54.16,281.7 70.61,266.5"
         id="path3268" />
      <path
         style="fill:#ff0000;fill-opacity:0.75;fill-rule:evenodd;stroke:#000000;stroke-width:2;stroke-linecap:butt;stroke-linejoin:miter;stroke-miterlimit:4;stroke-dasharray:none;stroke-opacity:1"
         d="M 53.7,251.1 37.63,266.7"
         id="path3270" />
    </g>
    <circle
       style="fill:#3250b0;stroke-width:3;stroke-linecap:round;stroke-linejoin:round;stroke-miterlimit:3"
       id="hold-point"
       cx="291.65695"
       cy="519.4657"
       r="16.011242" />
  </g>
</svg>

<?xml version="1.0" encoding="UTF-8" standalone="no"?>
<!-- Created with Inkscape (http://www.inkscape.org/) -->
<svg xmlns:dc="http://purl.org/dc/elements/1.1/" xmlns:cc="http://creativecommons.org/ns#" xmlns:rdf="http://www.w3.org/1999/02/22-rdf-syntax-ns#" xmlns:svg="http://www.w3.org/2000/svg" xmlns="http://www.w3.org/2000/svg" xmlns:sodipodi="http://sodipodi.sourceforge.net/DTD/sodipodi-0.dtd" xmlns:inkscape="http://www.inkscape.org/namespaces/inkscape" id="svg1534" sodipodi:version="0.32" inkscape:version="0.48.4 r9939" width="453.89282" height="698.66431" sodipodi:docname="scythe.svg" version="1.0">
  <metadata id="metadata1539">
    <rdf:RDF>
      <cc:Work rdf:about="">
        <dc:format>image/svg+xml</dc:format>
        <dc:type rdf:resource="http://purl.org/dc/dcmitype/StillImage"/>
        <dc:title/>
        <dc:creator>
          <cc:Agent>
            <dc:title>http://commons.wikimedia.org/wiki/User:Rinaldum</dc:title>
          </cc:Agent>
        </dc:creator>
      </cc:Work>
    </rdf:RDF>
  </metadata>
  <defs id="defs1537"/>
  <sodipodi:namedview inkscape:window-height="700" inkscape:window-width="1024" inkscape:pageshadow="2" inkscape:pageopacity="0.0" borderopacity="1.0" bordercolor="#666666" pagecolor="#ffffff" id="base" inkscape:zoom="0.7107819" inkscape:cx="234.38657" inkscape:cy="458.62833" inkscape:window-x="0" inkscape:window-y="0" inkscape:current-layer="g1920" showgrid="false"/>
  <g id="g1920">
    <g id="body" style="fill:#ffff00" inkscape:label="#g1876">
      <path style="fill:#ffff00;fill-opacity:1;fill-rule:evenodd;stroke:black;stroke-width:3;stroke-linecap:butt;stroke-linejoin:miter;stroke-miterlimit:4;stroke-dasharray:none;stroke-opacity:1" d="M107.9,232.2   C106.5,176.6 195.8,93.02 255.2,56.07   C325.5,12.47 364.9,21.89 364.6,21.3   C350.7,-6.454 272.1,-0.3365 238.2,11.35   C142.5,44.45 30.39,157.7 1.971,203.9   C0.5597,206.1 1.805,225.9 12.91,236.2   C25.6,247.9 27.39,249.2 35.3,254.1   C36.99,255.1 48.34,243.4 49.23,243.1   C49.83,243 30.33,223.9 49.73,212.8   C66.67,203.1 80.99,234.3 81.06,234.2   C81.67,233.1 107.9,233.4 107.9,232.2   z " id="path2381" sodipodi:nodetypes="cssssssssss"/>
      <path style="fill:#ffff00;fill-opacity:0.75000000000000000;fill-rule:evenodd;stroke:black;stroke-width:2;stroke-linecap:butt;stroke-linejoin:miter;stroke-miterlimit:4;stroke-dasharray:none;stroke-opacity:1" d="M19.54,209.1   C22.36,204.3 161.8,24.88 287.9,2.489   " id="path3260" sodipodi:nodetypes="cs"/>
    </g>
    <g id="handle" style="fill:#ff0000" inkscape:label="#g1910">
      <g id="g1903" style="fill:#ff0000">
        <path sodipodi:nodetypes="cssssssscccssscccc" id="path3266" d="M47.73,243.6   C47.73,243.6 274.3,477.6 274.6,477.4   C281.3,473.5 309.5,439 328.1,430.8   C335.7,427.5 346,439.3 344.3,445   C342.6,450.6 293.8,498.6 294.5,499.3   C295.3,508 435.6,658.5 435.7,658.5   C456.2,664.9 455.4,686.5 446.2,693.8   C438.8,699.6 417.5,700.5 411.3,674.4   C410.6,671.3 323.3,575.4 278.5,526.2   L250.7,497.3   L36.79,265   C36.79,265 31.82,262.4 27.34,258.6   C22.86,254.7 24.35,253 18.88,249.6   C13.41,246.3 9.059,248 5.453,245.1   C1.847,242.3 4.458,238.2 4.458,238.2   L19.38,241.7   L34.8,254.6   L47.73,243.6   z " style="fill:#ff0000;fill-opacity:1;fill-rule:evenodd;stroke:black;stroke-width:3;stroke-linecap:butt;stroke-linejoin:miter;stroke-miterlimit:4;stroke-dasharray:none;stroke-opacity:1"/>
        <g id="g1898" style="fill:#ff0000">
          <path style="fill:#ff0000;fill-opacity:0.75000000000000000;fill-rule:evenodd;stroke:black;stroke-width:2;stroke-linecap:butt;stroke-linejoin:miter;stroke-miterlimit:4;stroke-dasharray:none;stroke-opacity:1" d="M274.6,476.4   C273.1,490.2 290,497.1 290.5,497.3   " id="path3272" sodipodi:nodetypes="cc"/>
          <path style="fill:#ff0000;fill-opacity:0.75000000000000000;fill-rule:evenodd;stroke:black;stroke-width:2;stroke-linecap:butt;stroke-linejoin:miter;stroke-miterlimit:4;stroke-dasharray:none;stroke-opacity:1" d="M277,514.9   C277.8,514.1 294.2,499.8 294,499.6   " id="path3274" sodipodi:nodetypes="cc"/>
          <path style="fill:#ff0000;fill-opacity:0.75000000000000000;fill-rule:evenodd;stroke:black;stroke-width:2;stroke-linecap:butt;stroke-linejoin:miter;stroke-miterlimit:4;stroke-dasharray:none;stroke-opacity:1" d="M252.2,497.3   C259.9,489.2 273,477.5 274.1,476.4   " id="path3276" sodipodi:nodetypes="cc"/>
        </g>
      </g>
      <path style="fill:#ff0000;fill-opacity:0.75000000000000000;fill-rule:evenodd;stroke:black;stroke-width:2;stroke-linecap:butt;stroke-linejoin:miter;stroke-miterlimit:4;stroke-dasharray:none;stroke-opacity:1" d="M54.16,281.7   L70.61,266.5   " id="path3268" sodipodi:nodetypes="cc"/>
      <path style="fill:#ff0000;fill-opacity:0.75000000000000000;fill-rule:evenodd;stroke:black;stroke-width:2;stroke-linecap:butt;stroke-linejoin:miter;stroke-miterlimit:4;stroke-dasharray:none;stroke-opacity:1" d="M53.7,251.1   L37.63,266.7   " id="path3270" sodipodi:nodetypes="cc"/>
    </g>
  </g>
</svg>
